X: 1113
T: Knocknagow
R:double jig
N:"collected by Cronin"
B:O'Neill's 1113
Z:Transcribed by henrik.norbeck@mailbox.swipnet.se
M:6/8
L:1/8
K:Am
E|EAB cBc|EG^F GAB|EAB cBc|d^cd ecA|
EAB cBc|EG^F GAB|eag edB|cAA A2:|
B|Aab a^ga|ede g^fg|Aab aec|de^f gdB|
Aab a^ga|ede g^fg|e=fe dcB|cAA A2:|
c|ece dcB|cAF ECE|A^GA cBc|d^cd Bcd|
efe dcB|cAF ECE|Ace aed|^cAA A2:|
(^c/d/)|ea^f g2e|a2^f ecA|d^fa ecA|dBB Bcd|
ecA ^fdB|a^ga ecA|d^f^g aed|^cAA A2:|


